img/location-white.svg

<svg xmlns="http://www.w3.org/2000/svg" width="21" height="30" viewBox="0 0 11 16" fill="none">
  <path d="M11 5.61055C10.988 6.64046 10.7338 7.59973 10.2087 8.47565C8.80815 10.8133 7.39972 13.1458 5.99268 15.4792C5.732 15.9115 5.25715 15.9082 4.99462 15.4731C3.58758 13.1397 2.16626 10.8147 0.780407 8.46859C-1.20511 5.10713 0.791922 0.718119 4.58103 0.0767207C7.62909 -0.438941 10.4966 1.70047 10.9351 4.82128C10.9719 5.08217 10.9788 5.3473 11 5.61055ZM5.49388 7.89877C6.56609 7.89547 7.42736 7.01014 7.42551 5.91194C7.42367 4.8307 6.54813 3.94395 5.48697 3.9496C4.42306 3.95525 3.56455 4.83823 3.56409 5.92748C3.56409 7.01108 4.43641 7.90207 5.49388 7.89877Z" fill="white"/>
</svg>

<svg xmlns="http://www.w3.org/2000/svg" width="21" height="30" viewBox="0 0 11 16" fill="none"><path d="M11 5.61c-.012 1.03-.266 1.99-.791 2.866-1.4 2.337-2.81 4.67-4.216 7.003-.261.433-.736.43-.998-.006C3.588 13.14 2.166 10.815.78 8.47-1.205 5.107.792.719 4.581.077 7.629-.44 10.497 1.7 10.935 4.82c.037.261.044.526.065.79zM5.494 7.9c1.072-.004 1.933-.889 1.932-1.987-.002-1.081-.878-1.968-1.939-1.962-1.064.005-1.922.888-1.923 1.977 0 1.084.872 1.975 1.93 1.972z" fill="#fff"/></svg>
